X:1
T:Gallagher's Frolics
R:jig
M:6/8
L:1/8
K:Em
|:EB,E GFE|BAB dBA|BcB BAB|GBG AFD|
|EB,E GFE|BAB dBA|BAG FAF|1 GED EB,D:|2 GED Eeg|]
|:~e2f gfe|~g2b bge|~d2f fed|fad fed|
|~e2f gfe|dfe dBA|BAG FAF|1 GED Eeg:|2 GED EB,D|]